src/pdp/components/img/voucherImage.svg

<svg height="18" viewBox="0 0 30 18" width="30" xmlns="http://www.w3.org/2000/svg"><g fill="none" fill-rule="evenodd"><path d="m29.0322656.02080078h-22.25806639v.48386719c0 .26748047-.2164453.48386719-.48386718.48386719-.26748047 0-.48386718-.21644532-.48386718-.48386719v-.48386719h-4.83873048c-.53443359 0-.96773437.43324219-.96773437.96773438v4.25958984c0 .24392579.11994141.47572265.32736328.60404297.96439453.59648438 1.60810546 1.66095703 1.60810546 2.87830077 0 1.21728517-.64371093 2.28181646-1.60810546 2.87830076-.20742187.1283203-.32736328.3601758-.32736328.604043v4.2595898c0 .5344336.43330078.9677344.96773437.9677344h4.83873048v-.4838672c0-.2674804.2164453-.4838672.48386718-.4838672.26748047 0 .48386718.2164454.48386718.4838672v.4838672h22.25806639c.5344336 0 .9677344-.4333008.9677344-.9677344v-15.48386714c0-.53449219-.4333008-.96773438-.9677344-.96773438zm-22.22580076 15.00000002c0 .2674804-.2236619.4838672-.5.4838672-.27639864 0-.49999999-.2164453-.49999999-.4838672v-.9677344c0-.2674805.22366189-.4838672.49999999-.4838672.27639865 0 .5.2164453.5.4838672zm0-2.9032617c0 .2674804-.2236619.4838671-.5.4838671-.27639864 0-.49999999-.2164453-.49999999-.4838671v-.9677344c0-.2674805.22366189-.4838672.49999999-.4838672.27639865 0 .5.2164453.5.4838672zm0-2.90320316c0 .26748047-.2236619.48386718-.5.48386718-.27639864 0-.49999999-.2164453-.49999999-.48386718v-.96773438c0-.26748047.22366189-.48386718.49999999-.48386718.27639865 0 .5.2164453.5.48386718zm0-2.90320312c0 .26748047-.2236619.48386718-.5.48386718-.27639864 0-.49999999-.21644532-.49999999-.48386718v-.96773438c0-.26748047.22366189-.4838672.49999999-.4838672.27639865 0 .5.21644532.5.4838672zm0-2.90326173c0 .26748047-.2236619.4838672-.5.4838672-.27639864 0-.49999999-.21644532-.49999999-.4838672v-.96773438c0-.26748047.22366189-.48386718.49999999-.48386718.27639865 0 .5.21644532.5.48386718z" fill="#ffc350" fill-rule="nonzero"/><path d="m28.5483985 16.4724023h-20.32259771c-.26724611 0-.4838672-.2166211-.4838672-.4838671v-14.51613285c0-.2672461.21662109-.48386719.4838672-.48386719h20.32259771c.267246 0 .4838671.21662109.4838671.48386719v14.51613285c0 .267246-.2166211.4838671-.4838671.4838671z" fill="#ffd164"/><path d="m17.9867579 12.0742969-2.508047 1.5745313c-.5527148.3469921-1.2463476-.1569141-1.0871483-.7898438l.7224609-2.87185549-2.2725001-1.89873047c-.5008593-.41847656-.2358984-1.23386718.4152539-1.27798829l2.9545313-.20033203 1.1035547-2.74804688c.2432226-.605625 1.1005664-.605625 1.343789 0l1.1035547 2.74804688 2.9545313.20033203c.6511523.0441797.9161132.85957032.4152538 1.27798829l-2.2725 1.89873047.7224611 2.87185549c.1591991.6329297-.534375 1.1368945-1.0871485.7898438z" fill="#fff"/><path d="m21.2671874 11.6080664c-3.1354101-.1916602-5.7936913-2.13251952-7.0083983-4.8655664l-1.0020118.06791015c-.6511523.0441797-.9161132.85957032-.4152539 1.27798829l2.2725001 1.89873047-.7225196 2.87185549c-.1591992.6329297.534375 1.1368359 1.0871484.7898438l2.5080469-1.5745313 2.5079882 1.5745313c.5527149.3469921 1.2463478-.1569141 1.0870899-.7898438z" fill="#fff6d8"/></g></svg>

<?xml version="1.0" encoding="UTF-8"?>
<svg width="30px" height="18px" viewBox="0 0 30 18" version="1.1" xmlns="http://www.w3.org/2000/svg" xmlns:xlink="http://www.w3.org/1999/xlink">
    <!-- Generator: Sketch 52.3 (67297) - http://www.bohemiancoding.com/sketch -->
    <title>coupon30@2x</title>
    <desc>Created with Sketch.</desc>
    <g id="Page-1" stroke="none" stroke-width="1" fill="none" fill-rule="evenodd">
        <g id="coupon30">
            <path d="M29.0322656,0.0208007812 L6.77419921,0.0208007812 L6.77419921,0.504667968 C6.77419921,0.772148438 6.55775391,0.988535156 6.29033203,0.988535156 C6.02285156,0.988535156 5.80646485,0.772089844 5.80646485,0.504667968 L5.80646485,0.0208007812 L0.967734374,0.0208007812 C0.433300782,0.0208007812 0,0.454042968 0,0.988535156 L0,5.248125 C0,5.49205079 0.119941406,5.72384765 0.327363282,5.85216797 C1.29175781,6.44865235 1.93546874,7.513125 1.93546874,8.73046874 C1.93546874,9.94775391 1.29175781,11.0122852 0.327363282,11.6087695 C0.119941406,11.7370898 0,11.9689453 0,12.2128125 L0,16.4724023 C0,17.0068359 0.433300782,17.4401367 0.967734374,17.4401367 L5.80646485,17.4401367 L5.80646485,16.9562695 C5.80646485,16.6887891 6.02291015,16.4724023 6.29033203,16.4724023 C6.5578125,16.4724023 6.77419921,16.6888477 6.77419921,16.9562695 L6.77419921,17.4401367 L29.0322656,17.4401367 C29.5666992,17.4401367 30,17.0068359 30,16.4724023 L30,0.988535156 C30,0.454042968 29.5666992,0.0208007812 29.0322656,0.0208007812 Z M6.80646484,15.0208008 C6.80646484,15.2882812 6.58280294,15.504668 6.30646484,15.504668 C6.0300662,15.504668 5.80646485,15.2882227 5.80646485,15.0208008 L5.80646485,14.0530664 C5.80646485,13.7855859 6.03012674,13.5691992 6.30646484,13.5691992 C6.58286349,13.5691992 6.80646484,13.7856445 6.80646484,14.0530664 L6.80646484,15.0208008 Z M6.80646484,12.1175391 C6.80646484,12.3850195 6.58280294,12.6014062 6.30646484,12.6014062 C6.0300662,12.6014062 5.80646485,12.3849609 5.80646485,12.1175391 L5.80646485,11.1498047 C5.80646485,10.8823242 6.03012674,10.6659375 6.30646484,10.6659375 C6.58286349,10.6659375 6.80646484,10.8823828 6.80646484,11.1498047 L6.80646484,12.1175391 Z M6.80646484,9.21433594 C6.80646484,9.48181641 6.58280294,9.69820312 6.30646484,9.69820312 C6.0300662,9.69820312 5.80646485,9.48175782 5.80646485,9.21433594 L5.80646485,8.24660156 C5.80646485,7.97912109 6.03012674,7.76273438 6.30646484,7.76273438 C6.58286349,7.76273438 6.80646484,7.97917968 6.80646484,8.24660156 L6.80646484,9.21433594 Z M6.80646484,6.31113282 C6.80646484,6.57861329 6.58280294,6.795 6.30646484,6.795 C6.0300662,6.795 5.80646485,6.57855468 5.80646485,6.31113282 L5.80646485,5.34339844 C5.80646485,5.07591797 6.03012674,4.85953124 6.30646484,4.85953124 C6.58286349,4.85953124 6.80646484,5.07597656 6.80646484,5.34339844 L6.80646484,6.31113282 Z M6.80646484,3.40787109 C6.80646484,3.67535156 6.58280294,3.89173829 6.30646484,3.89173829 C6.0300662,3.89173829 5.80646485,3.67529297 5.80646485,3.40787109 L5.80646485,2.44013671 C5.80646485,2.17265624 6.03012674,1.95626953 6.30646484,1.95626953 C6.58286349,1.95626953 6.80646484,2.17271485 6.80646484,2.44013671 L6.80646484,3.40787109 Z" id="Shape" fill="#FFC350" fill-rule="nonzero"></path>
            <path d="M28.5483985,16.4724023 L8.22580079,16.4724023 C7.95855468,16.4724023 7.74193359,16.2557812 7.74193359,15.9885352 L7.74193359,1.47240235 C7.74193359,1.20515625 7.95855468,0.988535156 8.22580079,0.988535156 L28.5483985,0.988535156 C28.8156445,0.988535156 29.0322656,1.20515625 29.0322656,1.47240235 L29.0322656,15.9885352 C29.0322656,16.2557812 28.8156445,16.4724023 28.5483985,16.4724023 Z" id="Path" fill="#FFD164"></path>
            <path d="M17.9867579,12.0742969 L15.4787109,13.6488282 C14.9259961,13.9958203 14.2323633,13.4919141 14.3915626,12.8589844 L15.1140235,9.98712891 L12.8415234,8.08839844 C12.3406641,7.66992188 12.605625,6.85453126 13.2567773,6.81041015 L16.2113086,6.61007812 L17.3148633,3.86203124 C17.5580859,3.25640624 18.4154297,3.25640624 18.6586523,3.86203124 L19.762207,6.61007812 L22.7167383,6.81041015 C23.3678906,6.85458985 23.6328515,7.66998047 23.1319921,8.08839844 L20.8594921,9.98712891 L21.5819532,12.8589844 C21.7411523,13.4919141 21.0475782,13.9958789 20.4948047,13.6488282 L17.9867579,12.0742969 Z" id="Path" fill="#FFFFFF"></path>
            <path d="M21.2671874,11.6080664 C18.1317773,11.4164062 15.4734961,9.47554688 14.2587891,6.7425 L13.2567773,6.81041015 C12.605625,6.85458985 12.3406641,7.66998047 12.8415234,8.08839844 L15.1140235,9.98712891 L14.3915039,12.8589844 C14.2323047,13.4919141 14.9258789,13.9958203 15.4786523,13.6488282 L17.9866992,12.0742969 L20.4946874,13.6488282 C21.0474023,13.9958203 21.7410352,13.4919141 21.5817773,12.8589844 L21.2671874,11.6080664 Z" id="Path" fill="#FFF6D8"></path>
        </g>
    </g>
</svg>
